dist/img/svg/shirt2_icon.svg

<svg version="1.2" baseProfile="tiny-ps" xmlns="http://www.w3.org/2000/svg" width="1199" height="1088"><style/><g id="Capa 1"><g id="&lt;Group&gt;"><g id="&lt;Group&gt;"><path id="&lt;Compound Path&gt;" fill-rule="evenodd" d="M1187.29 326.5L992.92 522.97v537.32c0 12.9-10.46 23.36-23.36 23.36H229c-12.9 0-23.36-10.46-23.36-23.36V522.97L11.27 326.5c-.29-.28-.57-.56-.85-.85-8.88-9.35-8.5-24.14.85-33.03L255.4 74.9c2.24-2.05 4.86-3.63 7.71-4.68L440.65 5.98c2.1-.74 4.29-1.17 6.5-1.29 12.88-.69 23.89 9.2 24.58 22.08.23 5.14 7.71 123.58 126.85 125.45 118.44-1.87 126.15-120.31 126.15-125.45.12-2.32.58-4.62 1.37-6.8 4.41-12.13 17.81-18.39 29.93-13.99l177.79 63.54a23.47 23.47 0 017.71 4.68l245.76 218.42c.29.28.57.56.84.85 8.89 9.36 8.51 24.14-.84 33.03zm-51.63-15.42l-221.7-199.04-146.25-52.8c-13.37 68.94-67.28 122.84-136.21 136.22-93.35 18.12-183.71-42.87-201.82-136.22l-146.25 52.8-222.4 199.04L204.7 456.62V347.99c0-12.9 10.46-23.36 23.37-23.36 12.9 0 23.36 10.46 23.36 23.36v687.76H945.5V347.99c0-12.9 10.46-23.36 23.36-23.36 12.9 0 23.36 10.46 23.36 23.36v108.4l143.44-145.31z" fill="#000" stroke="#000" stroke-width="8"/></g></g></g></svg>

<svg version="1.2" baseProfile="tiny-ps" xmlns="http://www.w3.org/2000/svg" viewBox="0 0 1199 1088" width="1199" height="1088">
	<title>Capa 1</title>
	<style>
		tspan { white-space:pre }
		.shp0 { fill: #000000;stroke: #000000;stroke-width: 8 } 
	</style>
	<g id="Capa 1">
		<g id="&lt;Group&gt;">
			<g id="&lt;Group&gt;">
				<path id="&lt;Compound Path&gt;" fill-rule="evenodd" class="shp0" d="M1187.29 326.5L992.92 522.97L992.92 1060.29C992.92 1073.19 982.46 1083.65 969.56 1083.65L229 1083.65C216.1 1083.65 205.64 1073.19 205.64 1060.29L205.64 522.97L11.27 326.5C10.98 326.22 10.7 325.94 10.42 325.65C1.54 316.3 1.92 301.51 11.27 292.62L255.4 74.9C257.64 72.85 260.26 71.27 263.11 70.22L440.65 5.98C442.75 5.24 444.94 4.81 447.15 4.69C460.03 4 471.04 13.89 471.73 26.77C471.96 31.91 479.44 150.35 598.58 152.22C717.02 150.35 724.73 31.91 724.73 26.77C724.85 24.45 725.31 22.15 726.1 19.97C730.51 7.84 743.91 1.58 756.03 5.98L933.82 69.52C936.67 70.57 939.28 72.15 941.53 74.2L1187.29 292.62C1187.58 292.9 1187.86 293.18 1188.13 293.47C1197.02 302.83 1196.64 317.61 1187.29 326.5ZM1135.66 311.08L913.96 112.04L767.71 59.24C754.34 128.18 700.43 182.08 631.5 195.46C538.15 213.58 447.79 152.59 429.68 59.24L283.43 112.04L61.03 311.08L204.7 456.62L204.7 347.99C204.7 335.09 215.16 324.63 228.07 324.63C240.97 324.63 251.43 335.09 251.43 347.99L251.43 1035.75L945.5 1035.75L945.5 347.99C945.5 335.09 955.96 324.63 968.86 324.63C981.76 324.63 992.22 335.09 992.22 347.99L992.22 456.39L1135.66 311.08Z" />
			</g>
		</g>
	</g>
</svg>
